!!!!SEGMENT: pl-sa--549-a-ix-29--014_anonim--mazur-wojenny.krn
!!!cenid: 18xx:470
!!!COM: Anonim
!!!COM-rismid: pe30004985
!!!CDT:
!!!CNT:
!!!OTL: Mazur wojenny
!!!PDT:
!!!AGN: Secular; Mazurka
!!!SMS-siglum: PL-SA
!!!SMS-shelfmark: 549/A IX 29
!!!SMS-shelfwork: 014 W
!!!SMS-variant:
!!!SMS-altvar:
!!!NIFC-rismid: 1001068420
!!!URL-scan: http://bc.bdsandomierz.pl/dlibra/publication/1441/edition/1409/content
!!!ONB-nifc: Str. 12, s. 2-4
**kern	**kern
*part2	*part1
*staff2	*staff1
*Iempty	*Iempty
*	*I"pf
*	*ICklav
*clefF4	*clefG2
*k[f#c#]	*k[f#c#]
*D:	*D:
*M3/8	*M3/8
*>[A,A,B,B,C,C]	*
=1	=1
*>A	*
8D: 8AA: 8DD:/	16.aLL 16.f# 16.d/
.	32bJJk 32g/
8AL 8F# 8D\	8aL 8f# 8d/
8AJ 8F# 8D\	8aJ 8f# 8d/
=2	=2
16A 16F# 16D\	16a 16f# 16d/
16r	16r
4D: 4AA: 4DD:/	4dd 4a 4f#/
=3	=3
16A 16F# 16C#\	16a 16f# 16d/
16r	16r
4D: 4AA: 4DD:/	4ff# 4dd 4a\
=4	=4
16A 16F# 16D\	16dd 16a 16f#/
16r	16r
4D: 4AA: 4DD:/	4aa 4ff# 4dd\
=5	=5
!LO:N:vis=16.	!
8.GL 8.C#\	16aa 16a\
.	16r
.	8.cc#\L
!LO:N:vis=16	!
8.A\J	.
.	16ee\Jk
=6	=6
*	*Xtuplet
!	!LO:TX:a:t=P:problem:brak klamry, brak numeru&colon;global
8.F#L 8.D\	24.gg\LL
.	24r
.	48ff#\JJk
.	8.dd\L
!LO:N:vis=8	!
8.G\J	.
.	16b\Jk
=7	=7
8.GL 8.C#\	24.b\LL
.	24r
.	48a\JJk
.	16g#X\LL
!LO:N:vis=8	!
8.G\J	16a\
.	16b\
.	16cc#\JJ
=8	=8
8F# 8D\	16ee\LL
.	16dd\JJ
4A 4F# 4D\	4dd\
=9:|!|:	=9:|!|:
*>B	*
*Xtuplet	*
24DD/	8ff# 8dd 8a\
12D\	.
8A 8F# 8D\	8a 8f# 8d/
24DD/	8dd 8a/
12F#\	.
=10	=10
24DD/	24ff#LL 24dd 24a\
12D\	24r
.	24ff#JJ 24dd 24a\
8A 8F# 8D\	8a 8f# 8d/
24DD/	8dd 8a/
12F#\	.
!!LO:LB:g=original
=11	=11
24DD/	8ff# 8dd 8a\
12D\	.
8A 8F# 8D\	8a 8f# 8d/
24DD/	8dd 8a/
12F#\	.
=12	=12
24DD/	24ff#LL 24dd 24a\
12D\	24r
.	24ff#JJ 24dd 24b\
8A 8F# 8D\	8a 8f# 8d/
24DD/	8dd 8a/
12F#\	.
=13	=13
!LO:N:vis=16.	!
8.EL 8.AA\	16aa 16a\
.	16r
.	8.cc#\L
!LO:N:vis=16	!
8.A\J	.
.	16ee\Jk
=14	=14
!LO:N:vis=16.	!LO:N:vis=12
8.AL 8.F# 8.D\	24gg\L
.	24r
.	24ff#\Jkk
.	8.dd\L
!LO:N:vis=16	!
8.A\J	.
.	16b\Jk
=15	=15
!LO:N:vis=16.	!
8.GL 8.C#\	24b\LL
.	24r
.	24a\JJk
.	16g#X\LL
!LO:N:vis=16	!
8.A\J	16a\
.	16b\
.	16cc#\JJ
=16	=16
8A 8F#\	16ee\LL
.	16dd\JJ
4A 4F# 4D\	4dd\
=17:|!|:	=17:|!|:
*>C	*
24GG/	16bbLL 16gg\
12G\	.
.	16aa 16ff#\
8dL 8B 8G\	16bb 16gg\
.	16ccc# 16aa\
8dJ 8B 8G\	16ddd 16bb\
.	16bbJJ 16gg\
=18	=18
8E\L	16bbLL 16gg\
.	16aaJJ 16ff#\
8d 8A 8F#\	8.ff#L 8.dd\
8dJ 8A 8F#\	.
.	16aaJk 16ff#\
=19	=19
24AA/	16aaLL 16ff#\
12A\	.
.	16ggJJ 16ee\
8eL 8c# 8G\	8eeL 8cc#\
8eJ 8c# 8G\	16eeL 16cc#\
.	16gg\JJ
!!LO:LB:g=original
=20	=20
24DD/	16bbLL 16gg\
12D\	.
.	16aaJJ 16ff#\
*clefG2	*
4a 4f# 4d/	4aa 4ff#\
=21	=21
8A/L	16a\LL
.	16cc#\
8g 8e 8c#/	16ee\
.	16gg\
8gJ 8e 8c#/	16ff#\
.	16ee\JJ
=22	=22
8B/L	24dd\LL
.	24r
.	24ff#\
8f# 8d#X/	24bb\
.	24r
.	24ff#\
8f#J 8d#/	24gg 24ee\
.	24r
.	24ee\JJ
=23	=23
8G/L	16bb\LL
.	16ff#\
8e 8d 8B/	16gg\
.	16ee\
8gJ 8e 8c#/	16aa\
.	16cc#\JJ
=24	=24
8f# 8d/	8dd\L
*clefF4	*
4d: 4A: 4F#: 4D:\	8dddJ 8ff# 8dd\
.	8r
==:|!	==:|!
*-	*-
!!!system-decoration: [s1],[s2]
!!!AIN: 2 empty
!!!ENC: Marta Chmielewska
!!!END: 2020-06-17
!!!ENC: Leszek Kubiak
!!!END: 2022-01-04
